X: 3
T: I Buried My Wife And Danced On Her Grave
R: jig
M: 6/8
L: 1/8
K: Dmaj
|:DAD F2 G|AdB =cAF|G3 BAG|FAF GEA|
|DAD F2 G|AdB =cAF|GFG BAG|1 AFD D2 A:|2 AFD DFA||
|:d2e g/f/ed|faf gfe|d2e g/f/ed|dcA dcA|
|d2e g/f/ed|faf gfe|dcA BAG|1 AFD DFA:|2 AFD D2A||


Tune 383	Setting 13210

